X: 161
T: Dan Collins Favorite
T: Jig, D
L: 1/16
M: 6/8
K: D
|: A2B2| d4A2 B2A2B2| d2e2f2 a6| a2b2a2 f4e2| d2B2B2 B2A2B2| d4A2 B2A2B2| d2e2f2 a6| a2b2a2 f4e2| f2d2d2 d2:| 
|: e2g2| f2a2a2 f2a2a2| a2f2e2 f6| a2b2a2 f4e2| d2B2B2 B2A2B2| d4A2 B2A2B2| d2e2f2 a6| a2b2a2 f4e2| f2d2d2 d2:| 
D: Rodney Macdonald, Dancer's Delight, RMD1, 1995
